X: 9070
T: Da Hamefarers
R: reel
M: 4/4
K: Dmajor
|:(3ABc|"D"d2dA FAGF|"Em"G2E2 E2ed|"A7"c2cB Acec|"D"dfAd FAfe|
"D"d2dA "(A)"FAGF|"Em"G2E2 E2fg|"A7"a^g=gf eAfe|"D"d2d2 d2:|
|:fg|"D"afdA FAdc|"G"B2G2 G2ef|"A7"gece Acec|"D"fdAF DFfg|
"D"afdA FAdc|"G"B2G2 G2ef|"A7"gece Aaec|"D"d2 d2 d2:|

